X: 327
T: Liao gege
%%abc-version 2.0
%%abcx-abcm2ps-target-version 5.9.1 (29 Sep 2008)
%%abc-creator hum2abc beta
%%abcx-conversion-date 2013/10/02 07:52:30
%%abc-edited-by Helmut Schaffrath
%%humdrum-veritas 779132444
%%humdrum-veritas-data 2827471682
%%continueall 1
%%barnumbers 0
L: 1/8
M: 2/4
K: F
f> d c c/ c/ [I:setbarnb 1]| 
c DF2 | 
F B B D/ D/ | 
C4 | 
f> d c c/ c/ | 
c DF2 | 
F> B B D/ D/ | 
F4 |]  



